src/assets/animalImage/img/frog.svg

<?xml version="1.0" encoding="UTF-8" standalone="no"?><!DOCTYPE svg PUBLIC "-//W3C//DTD SVG 1.1//EN" "http://www.w3.org/Graphics/SVG/1.1/DTD/svg11.dtd"><svg width="100%" height="100%" viewBox="0 0 340 312" version="1.1" xmlns="http://www.w3.org/2000/svg" xmlns:xlink="http://www.w3.org/1999/xlink" xml:space="preserve" style="fill-rule:evenodd;clip-rule:evenodd;stroke-linejoin:round;stroke-miterlimit:1.41421;"><path d="M153.907,219.091c1.44,0 2.603,1.172 2.603,2.615c0,1.444 -1.163,2.607 -2.603,2.607c-1.444,0 -2.619,-1.163 -2.619,-2.607c0,-1.443 1.175,-2.615 2.619,-2.615Z" style="fill:#bfe7f3;fill-rule:nonzero;"/><path d="M168.894,180.806c1.444,0 2.619,1.163 2.619,2.607c0,1.443 -1.175,2.618 -2.619,2.618c-1.44,0 -2.603,-1.175 -2.603,-2.618c0,-1.444 1.163,-2.607 2.603,-2.607Z" style="fill:#bfe7f3;fill-rule:nonzero;"/><path d="M130.366,218.906c1.453,0 2.625,1.185 2.625,2.628c0,1.454 -1.172,2.629 -2.625,2.629c-1.444,0 -2.628,-1.175 -2.628,-2.629c0,-1.443 1.184,-2.628 2.628,-2.628Z" style="fill:#bfe7f3;fill-rule:nonzero;"/><path d="M130.366,195.063c3.413,0 6.181,2.781 6.181,6.184c0,3.403 -2.768,6.178 -6.181,6.178c-3.403,0 -6.172,-2.775 -6.172,-6.178c0,-3.403 2.769,-6.184 6.172,-6.184Z" style="fill:#bfe7f3;fill-rule:nonzero;"/><path d="M328.507,78.603c19.847,-23.603 -11.735,-7.34 -11.735,-7.34c9.603,-29.319 -10.515,-11.066 -10.515,-11.066c0.328,15.922 -6.407,19.562 -6.407,19.562c-29.353,35.888 -59.846,36.941 -59.846,36.941c0,0 -0.575,-5.634 -1.738,-14.05c18.819,-12.066 26.059,-36.312 26.059,-36.312c6.975,-23.329 19.185,-23.638 19.185,-23.638c48.997,-18.437 1.778,-14.45 1.778,-14.45c25.697,-42.594 -11.425,-9.047 -11.425,-9.047c-12.588,-40.169 -14.394,-4.85 -14.394,-4.85c8.563,40.119 -14.175,66.128 -23.24,74.706c-1.594,-9.34 -3.672,-19.887 -6.266,-29.575c-7.013,-25.806 -29.263,-12.696 -48.706,-4.381c-19.432,8.328 -27.157,23.81 -19.566,28.647c7.628,4.806 10.278,12.919 11.641,34.797c1.397,21.872 -35.763,41.309 -53.875,50.016c-18.135,8.7 -65.825,6.612 -72.719,5.809c-6.9,-0.841 -8.853,-5.044 -8.853,-5.044c-8.95,-12.525 -10.722,1.878 -10.722,1.878l3.928,8.544c-71.822,14.444 3.284,11.713 3.284,11.713c-33.306,27.353 7.413,7.3 7.413,7.3c-0.241,-8.56 32.419,-11.547 32.419,-11.547c51.043,-6.819 45.95,41.412 45.95,41.412c-24.753,62.088 -75.953,43.435 -75.953,43.435c-34.104,1.675 -1.757,14.437 -1.757,14.437c-43.278,22.956 7.088,12.288 7.088,12.288c-19.081,24.237 10.765,5.493 10.765,5.493c6.9,-9.834 21.463,-17.915 21.463,-17.915c163.584,-79.678 164.753,-149.922 164.753,-149.922c45.609,-16.625 48.134,-26.866 55.822,-35.588c7.653,-8.718 22.319,-5.775 22.319,-5.775c32.109,-2.581 3.85,-16.478 3.85,-16.478Z" style="fill:#76c274;fill-rule:nonzero;"/><path d="M201.982,106.766c-10.85,1.903 -21.316,-5.882 -23.335,-17.394c-2.022,-11.525 5.166,-22.422 16.013,-24.325c10.85,-1.903 21.331,5.9 23.353,17.419c2.019,11.512 -5.169,22.393 -16.031,24.3Z" style="fill:#fff;fill-rule:nonzero;"/><path d="M198.863,69.666c6.847,-1.197 13.384,3.372 14.584,10.218c1.203,6.844 -3.384,13.388 -10.231,14.591c-6.85,1.203 -13.372,-3.387 -14.572,-10.237c-1.2,-6.85 3.369,-13.366 10.219,-14.572Z" style="fill:#6a7463;fill-rule:nonzero;"/><path d="M226.81,108.45c0.784,4.475 -2.203,8.734 -6.681,9.519c-4.475,0.784 -8.735,-2.2 -9.519,-6.675c-0.788,-4.478 2.2,-8.738 6.678,-9.525c4.475,-0.781 8.734,2.206 9.522,6.681Z" style="fill:#f1cbc1;fill-rule:nonzero;"/></svg>

<?xml version="1.0" encoding="UTF-8" standalone="no"?>
<!DOCTYPE svg PUBLIC "-//W3C//DTD SVG 1.1//EN" "http://www.w3.org/Graphics/SVG/1.1/DTD/svg11.dtd">
<svg width="100%" height="100%" viewBox="0 0 340 340" version="1.1" xmlns="http://www.w3.org/2000/svg" xmlns:xlink="http://www.w3.org/1999/xlink" xml:space="preserve" xmlns:serif="http://www.serif.com/" style="fill-rule:evenodd;clip-rule:evenodd;stroke-linejoin:round;stroke-miterlimit:1.41421;">
    <g transform="matrix(1,0,0,1,0,14)">
        <path d="M153.907,219.091C155.347,219.091 156.51,220.263 156.51,221.706C156.51,223.15 155.347,224.313 153.907,224.313C152.463,224.313 151.288,223.15 151.288,221.706C151.288,220.263 152.463,219.091 153.907,219.091Z" style="fill:rgb(191,231,243);fill-rule:nonzero;"/>
    </g>
    <g transform="matrix(1,0,0,1,0,14)">
        <path d="M168.894,180.806C170.338,180.806 171.513,181.969 171.513,183.413C171.513,184.856 170.338,186.031 168.894,186.031C167.454,186.031 166.291,184.856 166.291,183.413C166.291,181.969 167.454,180.806 168.894,180.806Z" style="fill:rgb(191,231,243);fill-rule:nonzero;"/>
    </g>
    <g transform="matrix(1,0,0,1,0,14)">
        <path d="M130.366,218.906C131.819,218.906 132.991,220.091 132.991,221.534C132.991,222.988 131.819,224.163 130.366,224.163C128.922,224.163 127.738,222.988 127.738,221.534C127.738,220.091 128.922,218.906 130.366,218.906Z" style="fill:rgb(191,231,243);fill-rule:nonzero;"/>
    </g>
    <g transform="matrix(1,0,0,1,0,14)">
        <path d="M130.366,195.063C133.779,195.063 136.547,197.844 136.547,201.247C136.547,204.65 133.779,207.425 130.366,207.425C126.963,207.425 124.194,204.65 124.194,201.247C124.194,197.844 126.963,195.063 130.366,195.063Z" style="fill:rgb(191,231,243);fill-rule:nonzero;"/>
    </g>
    <g transform="matrix(1,0,0,1,0,14)">
        <path d="M328.507,78.603C348.354,55 316.772,71.263 316.772,71.263C326.375,41.944 306.257,60.197 306.257,60.197C306.585,76.119 299.85,79.759 299.85,79.759C270.497,115.647 240.004,116.7 240.004,116.7C240.004,116.7 239.429,111.066 238.266,102.65C257.085,90.584 264.325,66.338 264.325,66.338C271.3,43.009 283.51,42.7 283.51,42.7C332.507,24.263 285.288,28.25 285.288,28.25C310.985,-14.344 273.863,19.203 273.863,19.203C261.275,-20.966 259.469,14.353 259.469,14.353C268.032,54.472 245.294,80.481 236.229,89.059C234.635,79.719 232.557,69.172 229.963,59.484C222.95,33.678 200.7,46.788 181.257,55.103C161.825,63.431 154.1,78.913 161.691,83.75C169.319,88.556 171.969,96.669 173.332,118.547C174.729,140.419 137.569,159.856 119.457,168.563C101.322,177.263 53.632,175.175 46.738,174.372C39.838,173.531 37.885,169.328 37.885,169.328C28.935,156.803 27.163,171.206 27.163,171.206L31.091,179.75C-40.731,194.194 34.375,191.463 34.375,191.463C1.069,218.816 41.788,198.763 41.788,198.763C41.547,190.203 74.207,187.216 74.207,187.216C125.25,180.397 120.157,228.628 120.157,228.628C95.404,290.716 44.204,272.063 44.204,272.063C10.1,273.738 42.447,286.5 42.447,286.5C-0.831,309.456 49.535,298.788 49.535,298.788C30.454,323.025 60.3,304.281 60.3,304.281C67.2,294.447 81.763,286.366 81.763,286.366C245.347,206.688 246.516,136.444 246.516,136.444C292.125,119.819 294.65,109.578 302.338,100.856C309.991,92.138 324.657,95.081 324.657,95.081C356.766,92.5 328.507,78.603 328.507,78.603Z" style="fill:rgb(118,194,116);fill-rule:nonzero;"/>
    </g>
    <g transform="matrix(1,0,0,1,0,14)">
        <path d="M201.982,106.766C191.132,108.669 180.666,100.884 178.647,89.372C176.625,77.847 183.813,66.95 194.66,65.047C205.51,63.144 215.991,70.947 218.013,82.466C220.032,93.978 212.844,104.859 201.982,106.766Z" style="fill:white;fill-rule:nonzero;"/>
    </g>
    <g transform="matrix(1,0,0,1,0,14)">
        <path d="M198.863,69.666C205.71,68.469 212.247,73.038 213.447,79.884C214.65,86.728 210.063,93.272 203.216,94.475C196.366,95.678 189.844,91.088 188.644,84.238C187.444,77.388 192.013,70.872 198.863,69.666Z" style="fill:rgb(106,116,99);fill-rule:nonzero;"/>
    </g>
    <g transform="matrix(1,0,0,1,0,14)">
        <path d="M226.81,108.45C227.594,112.925 224.607,117.184 220.129,117.969C215.654,118.753 211.394,115.769 210.61,111.294C209.822,106.816 212.81,102.556 217.288,101.769C221.763,100.988 226.022,103.975 226.81,108.45Z" style="fill:rgb(241,203,193);fill-rule:nonzero;"/>
    </g>
</svg>
